X:193
T: Treue Liebe (3-34), S. 87
N: K1168
O: Luxemburg
S: KINTZELE, Guillaume: An der Ucht, Bd. 3 Luxemburg 1928]
N: in der Quelle mit einer 2. Stimme versehen
R: Treue, Tod]
M: 4/4
L: 1/8
K: F
cc | G2G2G2GG | G2c2cB
AG | F2A2AAAA | A2d2c2
FF | G2d2d2d2 | d2cBA2
cd | c3BB2cB | A4z2
FF | F2d2d2d2 | d2cBA2
cd | c3BB2cB | A4z2

@@@ Tune index: 8247
